X:40
T:Kispiricsi faluvégen
O: Mohács
Q: "Tánclépés" 1/4=104
M:2/4
L:1/8
K:F
dded | cccc | BBcB | AA A z | 
dded | cccc | BBcB | AA A z | 
G2 G2 | FF F z | ddcB | AA A z | 
G2 G2 | FF F z | CCDC | DD D z | 

